X:1
T:New Policeman, The
R:reel
M:4/4
L:1/8
K:D
DA,~A,2 DEFA|d2fe dBBA|B2AF ABde|fede fe~e2|
dA~A2 DEFA|d2fe dBBA|B2AF ABdB|AFEG FDD2:|
fa~a2 afdf|gfed (3Bcd ef|g2gf gbag|faaf egfe|
dB~B2 AF~F2|DF~F2 ABdf|afef dBAF|Adag fd~d2:|
</abc>
